X:402
T: Dayanjing sai dengzhan li
N: C1437
O: China,Qinghai, Minhe
S: I, 257]
R: Shange, Huar, Ermeihua ling]
M: 2/4
L: 1/16
K: C
A2cAc2d2 | d2cdc2A2 | cdc4A2 | G6A2 |
d4d3g | d4c2A2 | cdc4A2 | G4z4 |
Acc4d2 | d3cA2G2 | c4dcAc | A8 |
c3dc2A2 | c2A4G2 | G4z4

@@@ Tune index: 6403
